X:1
T:Diman, LM
T:Diman, LM
T:Joseph Emerson Sweetser (1817–1873)
T:Public Domain Courtesy of the Cyber Hymnal™
C:Joseph Emerson Sweetser (1817–1873)
Z:Public Domain
Z:Courtesy of the Cyber Hymnal™
%%score ( 1 2 ) ( 3 4 )
L:1/8
Q:1/4=115
M:4/4
K:G
V:1 treble 
V:2 treble 
V:3 bass 
V:4 bass 
V:1
 [B,D]4 [B,G]2 [DB]2 | [B,D]6 [DB]2 | (A2 E2) (F2 D2) | [B,G]6 z2 | [GB]4 [Gc]2 [Ge]2 | %5
 [Gd]4 [GB]4 | (A2 d2 e2) A2 | [Fd]6 z2 | [Fe]4 [FA]2 [Fe]2 | [Gd]4 (D2 B2) | [^CA]4 (E2 B2) | %11
 [=CA]6 z2 | [B,D]4 [B,G]2 [DB]2 | [B,D]6 [DB]2 | (A2 E2) (F2 D2) | [B,G]6 z3 |] %16
V:2
 x8 | x8 | ^C4 =C4 | x8 | x8 | x8 | F4 G4 | x8 | x8 | x4 D4 | x4 ^C4 | x8 | x8 | x8 | ^C4 =C4 | %15
 x9 |] %16
V:3
 [G,,D,]4 [G,,D,]2 [G,,D,]2 | [G,,D,]6 [G,,G,]2 | [A,,E,]4 (D,2 A,2) | [G,,G,]6 z2 | %4
 [G,D]4 [G,E]2 [G,C]2 | [G,B,]4 [G,D]4 | [A,D]4 [A,^C]4 | [D,D]6 z2 | [D,C]4 [D,C]2 [D,C]2 | %9
 [G,B,]4 [G,,B,]4 | [A,,E,]4 [A,,G,]4 | [D,F,]6 z2 | [G,,D,]4 [G,,D,]2 [G,,D,]2 | %13
 [G,,D,]6 [G,,G,]2 | [A,,E,]4 (D,2 A,2) | [G,,G,]6 z3 |] %16
V:4
 x8 | x8 | x4 D,4 | x8 | x8 | x8 | x8 | x8 | x8 | x8 | x8 | x8 | x8 | x8 | x4 D,4 | x9 |] %16

